X:1
T:Title
%%score { ( 1 3 ) | ( 2 4 ) }
L:1/8
Q:1/4=100
M:4/4
K:C
V:1 treble nm="Grand Piano"
V:3 treble 
V:2 bass 
V:4 bass 
V:1
 [Ec]2 G2 B3 A | [EG]3 [DF] [CE]2 [Ec]2 | B2 c2 d2 G2 | [Ec]3 [Fd] [Ge]2 [EG]2 | [Ec]2 G2 B3 A | %5
w: C.~C.~Case * * *|||||
 [EG]3 [DF] [CE]2 [Ec]2 | d2 G2 e3 d |[M:3/4] [Ec]6 |[M:1/4] G>G |[M:4/4] c6 z2 | G6 z2 | %11
w: ||||||
 B>c d>e d2 G2 | [Ec]>[Fd] [Ge]>[Af] [Ge]2 G>G | c6 z2 | G6 z2 | d>c B>A G>G d>d |[M:3/4] [Ec]6 | %17
w: ||||||
[M:1/4] z e |[M:4/4] g>e c>A [EG]>[Ec] [Ge]>[Fd] | c->[Ac-] [Gc-]>[Fc-] [Ec]4 |] %20
w: |||
V:2
 [C,G,]2 [E,G,E]2[K:treble] [G,F]3 [G,F] | [G,,G,]3 [G,,G,] [C,G,]2 [C,G,]2 | %2
 [G,D]2[K:treble] [G,E]2 [G,F]2 [G,B,F]2 | [C,C]3 [C,C] [C,C]2 [C,C]2 | %4
 [C,G,]2 [E,G,E]2[K:treble] [G,F]3 [G,F] | [G,,G,]3 [G,,G,] [C,G,]2 [C,G,]2 | %6
 [G,B,F]2 [G,B,F]2 [G,B,G]3 [G,B,F] |[M:3/4][K:bass] [C,C]6 |[M:1/4] z2 | %9
[M:4/4] z2 [C,G,]>[C,G,] [C,G,]2[K:treble] F2 | E6[K:bass] z2 | %11
 [G,D]>[K:treble][G,E] [G,F]>[G,G] [G,F]2 [G,F]2 | [C,C]>[C,C] [C,C]>[C,C] [C,C]2 z2 | %13
 z2 [C,G,]>[C,G,] [C,G,]2[K:treble] F2 | E6[K:bass] z2 | %15
 [G,F]>[G,E] [G,G]>[G,F] [G,E]>[G,E] [G,B,F]>[G,B,F] |[M:3/4][K:bass] [C,C]6 |[M:1/4] z2 | %18
[M:4/4] [C,C]2 [G,CE]2 [G,,G,]2 [G,,G,]2 | z z/[K:treble] F/ E>D C4 |] %20
V:3
 x8 | x8 | x8 | x8 | x8 | x8 | x8 |[M:3/4] x6 |[M:1/4] x2 |[M:4/4] z2 E>E E2 A2 | z2 C>C C2 [Ec]2 | %11
 x8 | x8 | z2 E>E E2 A2 | z2 C>C C2 [Ge]2 | x8 |[M:3/4] x6 |[M:1/4] x2 |[M:4/4] x8 | E2 z2 z4 |] %20
V:4
 x4[K:treble] x4 | x8 | x2[K:treble] x6 | x8 | x4[K:treble] x4 | x8 | x8 |[M:3/4][K:bass] x6 | %8
[M:1/4] x2 |[M:4/4] x6[K:treble] x2 | z2[K:bass] C,>C, C,2 [C,G,]2 | x3/2[K:treble] x13/2 | x8 | %13
 x6[K:treble] x2 | z2[K:bass] C,>C, C,2 [C,C]2 | x8 |[M:3/4][K:bass] x6 |[M:1/4] x2 |[M:4/4] x8 | %19
 [C,,C,]8[K:treble] |] %20

